; generated by PrusaSlicer 2.4.2+arm64 on 2022-08-20 at 19:32:41 UTC


;
;
; 

; external perimeters extrusion width = 0.45mm
; perimeters extrusion width = 0.45mm
; infill extrusion width = 0.45mm
; solid infill extrusion width = 0.45mm
; top infill extrusion width = 0.40mm
; first layer extrusion width = 0.42mm

M73 P0 R160
M73 Q0 S160
M201 X1000 Y1000 Z200 E5000 ; sets maximum accelerations, mm/sec^2
M203 X200 Y200 Z12 E120 ; sets maximum feedrates, mm / sec
M204 P1250 R1250 T1250 ; sets acceleration (P, T) and retract acceleration (R), mm/sec^2
M205 X8.00 Y8.00 Z0.40 E4.50 ; sets the jerk limits, mm/sec
M205 S0 T0 ; sets the minimum extruding and travel feed rate, mm/sec
M107
;TYPE:Custom
M862.3 P "MK3SMMU2S" ; printer model check
M862.1 P0.4 ; nozzle diameter check
M115 U3.11.0 ; tell printer latest fw version
G90 ; use absolute coordinates
M83 ; extruder relative mode
M104 S215 ; set extruder temp
M140 S60 ; set bed temp
Tx
M190 S60 ; wait for bed temp
M109 S215 ; wait for extruder temp
G28 W ; home all without mesh bed level
G80 ; mesh bed leveling

;go outside print area
G1 Y-3 F1000
G1 Z0.4 F1000
; select extruder
Tc
; purge line
G1 X55 F2000
G1 Z0.3 F1000
G92 E0
G1 X240 E25 F2200
G1 Y-2 F1000
G1 X55 E25 F1400
G1 Z0.2 F1000
G1 X5 E4 F1000

M221 S95
G92 E0

; Don't change E values below. Excessive value can damage the printer.

M907 E538 ; set extruder motor current
G21 ; set units to millimeters
G90 ; use absolute coordinates
M83 ; use relative distances for extrusion
M900 K0.05 ; Filament gcode LA 1.5
M900 K30 ; Filament gcode LA 1.0
M107
;LAYER_CHANGE
;Z:0.2
;HEIGHT:0.2
;BEFORE_LAYER_CHANGE
G92 E0.0
;0.2


G1 E-.8 F2100
G1 Z.4 F720
;AFTER_LAYER_CHANGE
;0.2
G1 X98.129 Y96.531 F10800
G1 Z.2 F720
G1 E.8 F2100
M204 S800
;TYPE:Skirt/Brim
;WIDTH:0.42
G1 F1200
G1 X128.733 Y69.635 E1.27747
G1 X130.302 Y69.044 E.05258
G1 X150.302 Y69.044 E.62709
G1 X151.609 Y69.435 E.04278
G1 X152.485 Y70.481 E.04278
G1 X152.679 Y71.421 E.03008
G1 X152.679 Y138.421 E2.10074
G1 X152.287 Y139.728 E.04278
G1 X151.242 Y140.604 E.04278
G1 X150.302 Y140.798 E.03008
G1 X130.302 Y140.798 E.62709
G1 X128.733 Y140.206 E.05258
G1 X98.129 Y113.31 E1.27747
G1 X97.321 Y111.525 E.06145
G1 X97.321 Y98.317 E.41413
G1 X98.104 Y96.586 E.05957
M204 S1000
; printing object Electromagnet Holder One 100lb v5 id:0 copy 0
;WIPE_START
G1 F8640
G1 X100.575 Y94.412 E-.76
;WIPE_END
G1 E-.04 F2100
G1 Z.6 F720
G1 X103.842 Y102.652 F10800
G1 Z.2 F720
G1 E.8 F2100
M204 S800
;TYPE:Perimeter
G1 F1200
G1 X104.333 Y102.21 E.02072
G1 X104.939 Y101.86 E.02196
G1 X105.605 Y101.643 E.02196
G1 X106.272 Y101.573 E.021
G1 X106.996 Y101.643 E.02281
G1 X107.665 Y101.86 E.02205
G1 X108.271 Y102.21 E.02196
G1 X108.792 Y102.679 E.02196
G1 X109.204 Y103.245 E.02196
G1 X109.488 Y103.885 E.02196
G1 X109.634 Y104.57 E.02196
G1 X109.634 Y105.271 E.02196
G1 X109.488 Y105.956 E.02196
G1 X109.204 Y106.596 E.02196
G1 X108.792 Y107.163 E.02196
G1 X108.271 Y107.631 E.02196
G1 X107.665 Y107.981 E.02196
G1 X106.999 Y108.198 E.02196
G1 X106.302 Y108.271 E.02196
G1 X105.605 Y108.198 E.02196
G1 X104.939 Y107.981 E.02196
G1 X104.333 Y107.631 E.02196
G1 X103.812 Y107.163 E.02196
G1 X103.4 Y106.596 E.02196
G1 X103.116 Y105.956 E.02196
G1 X102.97 Y105.271 E.02196
G1 X102.97 Y104.57 E.02196
G1 X103.116 Y103.885 E.02196
G1 X103.4 Y103.245 E.02196
G1 X103.8 Y102.695 E.02132
M204 S1000
G1 X104.094 Y102.932 F10800
M204 S800
;TYPE:External perimeter
G1 F1200
G1 X104.556 Y102.517 E.01948
G1 X105.093 Y102.206 E.01948
G1 X105.684 Y102.014 E.01948
G1 X106.273 Y101.952 E.01858
G1 X106.919 Y102.014 E.02033
G1 X107.511 Y102.206 E.01951
G1 X108.048 Y102.517 E.01948
G1 X108.51 Y102.932 E.01948
G1 X108.875 Y103.435 E.01948
G1 X109.128 Y104.003 E.01948
G1 X109.257 Y104.61 E.01948
G1 X109.257 Y105.231 E.01948
G1 X109.128 Y105.839 E.01948
G1 X108.875 Y106.406 E.01948
G1 X108.51 Y106.909 E.01948
G1 X108.049 Y107.325 E.01948
G1 X107.511 Y107.635 E.01948
G1 X106.92 Y107.827 E.01948
G1 X106.302 Y107.892 E.01948
G1 X105.684 Y107.827 E.01948
G1 X105.093 Y107.635 E.01948
G1 X104.556 Y107.325 E.01948
G1 X104.094 Y106.909 E.01948
G1 X103.729 Y106.406 E.01948
G1 X103.476 Y105.839 E.01948
G1 X103.347 Y105.231 E.01948
G1 X103.347 Y104.61 E.01948
G1 X103.476 Y104.003 E.01948
G1 X103.729 Y103.435 E.01948
G1 X104.059 Y102.981 E.01759
M204 S1000
G1 X103.97 Y102.552 F10800
;WIPE_START
G1 F8640
G1 X104.556 Y102.517 E-.15701
G1 X105.093 Y102.206 E-.14344
G1 X105.684 Y102.014 E-.14343
G1 X106.273 Y101.952 E-.1368
G1 X106.919 Y102.014 E-.1497
G1 X107.041 Y102.054 E-.02963
;WIPE_END
G1 E-.04 F2100
G1 Z.6 F720
G1 X137.089 Y134.208 F10800
G1 Z.2 F720
G1 E.8 F2100
M204 S800
;TYPE:Perimeter
G1 F1200
G1 X137.089 Y110.738 E.73589
G1 X100.485 Y110.738 E1.14769
G1 X100.485 Y99.104 E.36477
G1 X137.089 Y99.104 E1.14769
G1 X137.089 Y75.634 E.73589
G1 X131.089 Y75.634 E.18813
G1 X131.089 Y72.208 E.10741
G1 X149.515 Y72.208 E.57773
G1 X149.515 Y85.389 E.41328
G1 X149.539 Y86.923 E.0481
G1 X149.599 Y87.39 E.01477
G1 X149.184 Y87.114 E.01564
G1 X148.433 Y86.886 E.02461
G1 X147.672 Y86.837 E.02392
G1 X146.926 Y86.934 E.02358
G1 X146.213 Y87.171 E.02356
G1 X145.559 Y87.541 E.02356
G1 X144.987 Y88.028 E.02356
G1 X144.518 Y88.617 E.02362
G1 X144.164 Y89.308 E.02432
G1 X143.958 Y90.002 E.02271
G1 X143.886 Y90.75 E.02356
G1 X143.958 Y91.498 E.02356
G1 X144.172 Y92.218 E.02356
G1 X144.519 Y92.885 E.02356
G1 X144.987 Y93.472 E.02356
G1 X145.559 Y93.96 E.02356
G1 X146.213 Y94.329 E.02356
G1 X146.926 Y94.567 E.02356
G1 X147.672 Y94.664 E.02358
G1 X148.433 Y94.614 E.02392
G1 X149.184 Y94.386 E.02461
G1 X149.599 Y94.111 E.01564
G1 X149.539 Y94.581 E.01487
G1 X149.515 Y95.619 E.03255
G1 X149.518 Y100.637 E.15735
G1 X149.539 Y101.174 E.01686
G1 X149.599 Y101.64 E.01472
G1 X149.184 Y101.364 E.01564
G1 X148.433 Y101.136 E.02461
G1 X147.672 Y101.087 E.02392
G1 X146.926 Y101.184 E.02358
G1 X146.213 Y101.421 E.02356
G1 X145.559 Y101.791 E.02356
G1 X144.987 Y102.278 E.02356
G1 X144.518 Y102.867 E.02362
G1 X144.164 Y103.558 E.02432
G1 X143.958 Y104.252 E.02271
G1 X143.886 Y105 E.02356
G1 X143.958 Y105.748 E.02356
G1 X144.172 Y106.468 E.02356
G1 X144.519 Y107.135 E.02356
G1 X144.987 Y107.722 E.02356
G1 X145.559 Y108.21 E.02356
G1 X146.213 Y108.579 E.02356
G1 X146.926 Y108.817 E.02356
G1 X147.672 Y108.914 E.02358
G1 X148.433 Y108.864 E.02392
G1 X149.184 Y108.636 E.02461
G1 X149.599 Y108.361 E.01564
G1 X149.539 Y108.833 E.01494
G1 X149.515 Y110.371 E.04822
G1 X149.518 Y114.887 E.1416
G1 X149.539 Y115.424 E.01686
G1 X149.599 Y115.89 E.01471
G1 X149.184 Y115.614 E.01564
G1 X148.433 Y115.386 E.0246
G1 X147.672 Y115.337 E.02392
G1 X146.926 Y115.434 E.02358
G1 X146.213 Y115.671 E.02356
G1 X145.559 Y116.041 E.02356
G1 X144.987 Y116.528 E.02356
G1 X144.518 Y117.117 E.02362
G1 X144.164 Y117.808 E.02432
G1 X143.958 Y118.502 E.02271
G1 X143.886 Y119.25 E.02356
G1 X143.958 Y119.998 E.02356
G1 X144.172 Y120.718 E.02356
G1 X144.519 Y121.385 E.02356
G1 X144.987 Y121.972 E.02356
G1 X145.559 Y122.46 E.02356
G1 X146.213 Y122.829 E.02356
G1 X146.926 Y123.067 E.02356
G1 X147.672 Y123.164 E.02358
G1 X148.433 Y123.114 E.02392
G1 X149.184 Y122.886 E.02461
G1 X149.6 Y122.61 E.01565
G1 X149.541 Y123.051 E.01392
G1 X149.518 Y123.583 E.01672
G1 X149.515 Y137.634 E.44054
G1 X131.089 Y137.634 E.57773
M73 P0 R159
G1 X131.089 Y134.208 E.10741
G1 X137.029 Y134.208 E.18624
M204 S1000
G1 X136.712 Y133.831 F10800
M204 S800
;TYPE:External perimeter
G1 F1200
G1 X136.712 Y111.115 E.71224
G1 X100.108 Y111.115 E1.14769
G1 X100.108 Y98.727 E.38842
G1 X136.712 Y98.727 E1.14769
G1 X136.712 Y76.011 E.71224
G1 X130.712 Y76.011 E.18813
M73 Q0 S159
G1 X130.712 Y71.831 E.13106
G1 X149.892 Y71.831 E.60138
G1 X149.892 Y85.386 E.42501
G1 X149.916 Y86.896 E.04734
G1 X149.983 Y87.416 E.01644
G1 X150.092 Y87.901 E.0156
G1 X150.092 Y88.333 E.01356
G1 X149.79 Y88.091 E.01214
G1 X149.334 Y87.658 E.01971
G1 X149.024 Y87.46 E.01154
G1 X148.365 Y87.26 E.02161
G1 X147.684 Y87.215 E.0214
G1 X147.011 Y87.303 E.02129
G1 X146.367 Y87.518 E.02128
G1 X145.776 Y87.851 E.02128
G1 X145.259 Y88.291 E.02128
G1 X144.836 Y88.823 E.0213
G1 X144.516 Y89.449 E.02204
G1 X144.33 Y90.075 E.02047
G1 X144.265 Y90.75 E.02128
G1 X144.33 Y91.426 E.02128
G1 X144.523 Y92.076 E.02128
G1 X144.837 Y92.678 E.02128
G1 X145.259 Y93.209 E.02128
G1 X145.776 Y93.649 E.02128
G1 X146.367 Y93.983 E.02128
G1 X147.011 Y94.197 E.02128
G1 X147.684 Y94.285 E.02129
G1 X148.365 Y94.241 E.0214
G1 X149.024 Y94.041 E.02161
G1 X149.334 Y93.842 E.01153
G1 X149.793 Y93.408 E.0198
G1 X150.092 Y93.167 E.01205
G1 X150.092 Y93.602 E.01364
G1 X149.982 Y94.089 E.01565
G1 X149.915 Y94.609 E.01646
G1 X149.892 Y95.623 E.03179
G1 X149.895 Y100.629 E.15698
G1 X149.916 Y101.143 E.01611
G1 X149.982 Y101.662 E.01641
G1 X150.092 Y102.149 E.01565
G1 X150.092 Y102.583 E.01364
G1 X149.79 Y102.341 E.01214
G1 X149.334 Y101.908 E.01971
G1 X149.024 Y101.71 E.01154
G1 X148.365 Y101.51 E.02161
G1 X147.684 Y101.465 E.0214
G1 X147.011 Y101.553 E.02129
G1 X146.367 Y101.768 E.02128
G1 X145.776 Y102.101 E.02128
G1 X145.259 Y102.541 E.02128
G1 X144.836 Y103.073 E.0213
G1 X144.516 Y103.699 E.02204
G1 X144.33 Y104.325 E.02047
G1 X144.265 Y105 E.02128
G1 X144.33 Y105.676 E.02128
G1 X144.523 Y106.326 E.02128
G1 X144.837 Y106.928 E.02128
G1 X145.259 Y107.459 E.02128
G1 X145.776 Y107.899 E.02128
G1 X146.367 Y108.233 E.02128
G1 X147.011 Y108.447 E.02128
G1 X147.684 Y108.535 E.02129
G1 X148.365 Y108.491 E.0214
G1 X149.024 Y108.291 E.02161
G1 X149.334 Y108.092 E.01153
G1 X149.793 Y107.658 E.0198
G1 X150.092 Y107.417 E.01205
G1 X150.092 Y107.852 E.01364
G1 X149.982 Y108.339 E.01565
G1 X149.915 Y108.86 E.01649
G1 X149.892 Y110.374 E.04746
G1 X149.895 Y114.879 E.14128
G1 X149.916 Y115.393 E.01611
G1 X149.982 Y115.912 E.01641
G1 X150.092 Y116.399 E.01565
G1 X150.092 Y116.833 E.01364
G1 X149.79 Y116.591 E.01214
G1 X149.334 Y116.158 E.01971
G1 X149.024 Y115.96 E.01154
G1 X148.365 Y115.76 E.02161
G1 X147.684 Y115.715 E.02141
G1 X147.011 Y115.803 E.02129
G1 X146.367 Y116.018 E.02128
G1 X145.776 Y116.351 E.02128
G1 X145.259 Y116.791 E.02128
G1 X144.836 Y117.323 E.0213
G1 X144.516 Y117.949 E.02204
G1 X144.33 Y118.575 E.02047
G1 X144.265 Y119.25 E.02128
G1 X144.33 Y119.926 E.02128
G1 X144.523 Y120.576 E.02128
G1 X144.837 Y121.178 E.02128
G1 X145.259 Y121.709 E.02128
G1 X145.776 Y122.149 E.02128
G1 X146.367 Y122.483 E.02128
G1 X147.011 Y122.697 E.02128
G1 X147.684 Y122.785 E.02129
G1 X148.365 Y122.741 E.0214
G1 X149.024 Y122.541 E.02161
G1 X149.334 Y122.342 E.01153
G1 X149.793 Y121.908 E.0198
G1 X150.092 Y121.667 E.01205
G1 X150.092 Y122.09 E.01328
G1 X149.985 Y122.571 E.01544
G1 X149.917 Y123.083 E.01621
G1 X149.896 Y123.591 E.01594
G1 X149.892 Y138.011 E.4521
G1 X130.712 Y138.011 E.60138
G1 X130.712 Y133.831 E.13106
G1 X136.652 Y133.831 E.18624
M204 S1000
G1 X137.104 Y133.75 F10800
;WIPE_START
G1 F8640
G1 X136.661 Y130.539 E-.76
;WIPE_END
G1 E-.04 F2100
G1 Z.6 F720
G1 X148.637 Y72.321 F10800
G1 Z.2 F720
G1 E.8 F2100
M204 S800
;TYPE:Solid infill
;WIDTH:0.421125
G1 F1200
G1 X149.232 Y72.916 E.02646
G1 X149.232 Y73.451 E.01682
G1 X148.272 Y72.491 E.0427
G1 X147.737 Y72.491 E.01682
G1 X149.232 Y73.986 E.06649
G1 X149.232 Y74.52 E.01682
G1 X147.202 Y72.491 E.09028
G1 X146.667 Y72.491 E.01682
G1 X149.232 Y75.055 E.11406
G1 X149.232 Y75.59 E.01682
G1 X146.133 Y72.491 E.13785
G1 X145.598 Y72.491 E.01682
G1 X149.232 Y76.125 E.16164
G1 X149.232 Y76.66 E.01682
G1 X145.063 Y72.491 E.18543
G1 X144.528 Y72.491 E.01682
G1 X149.232 Y77.195 E.20921
G1 X149.232 Y77.73 E.01682
G1 X143.993 Y72.491 E.233
G1 X143.458 Y72.491 E.01682
G1 X149.232 Y78.264 E.25679
G1 X149.232 Y78.799 E.01682
G1 X142.923 Y72.491 E.28058
G1 X142.388 Y72.491 E.01682
G1 X149.232 Y79.334 E.30436
G1 X149.232 Y79.869 E.01682
G1 X141.854 Y72.491 E.32815
G1 X141.319 Y72.491 E.01682
G1 X149.232 Y80.404 E.35194
G1 X149.232 Y80.939 E.01682
G1 X140.784 Y72.491 E.37573
G1 X140.249 Y72.491 E.01682
G1 X149.232 Y81.474 E.39951
G1 X149.232 Y82.009 E.01682
G1 X139.714 Y72.491 E.4233
G1 X139.179 Y72.491 E.01682
G1 X149.232 Y82.543 E.44709
G1 X149.232 Y83.078 E.01682
G1 X138.644 Y72.491 E.47088
G1 X138.11 Y72.491 E.01682
G1 X149.232 Y83.613 E.49466
G1 X149.232 Y84.148 E.01682
G1 X137.575 Y72.491 E.51845
G1 X137.04 Y72.491 E.01682
G1 X149.232 Y84.683 E.54224
G1 X149.232 Y85.218 E.01682
G1 X136.505 Y72.491 E.56603
G1 X135.97 Y72.491 E.01682
G1 X149.238 Y85.758 E.59007
G1 X149.246 Y86.302 E.01709
G1 X135.435 Y72.491 E.61423
G1 X134.9 Y72.491 E.01682
G1 X149.248 Y86.838 E.63808
G1 X148.481 Y86.606 E.02518
G1 X134.366 Y72.491 E.62777
G1 X133.831 Y72.491 E.01682
G1 X136.691 Y75.351 E.12721
G1 X136.156 Y75.351 E.01682
G1 X133.296 Y72.491 E.12721
G1 X132.761 Y72.491 E.01682
G1 X135.621 Y75.351 E.12721
G1 X135.086 Y75.351 E.01682
G1 X132.226 Y72.491 E.12721
G1 X131.691 Y72.491 E.01682
G1 X134.551 Y75.351 E.12721
G1 X134.017 Y75.351 E.01682
G1 X131.372 Y72.706 E.11762
G1 X131.372 Y73.241 E.01682
G1 X133.482 Y75.351 E.09383
G1 X132.947 Y75.351 E.01682
G1 X131.372 Y73.776 E.07005
G1 X131.372 Y74.311 E.01682
G1 X132.412 Y75.351 E.04626
G1 X131.877 Y75.351 E.01682
G1 X131.202 Y74.676 E.03002
M204 S1000
;WIPE_START
G1 F8640
G1 X131.877 Y75.351 E-.22041
G1 X132.412 Y75.351 E-.1235
G1 X131.372 Y74.311 E-.33966
G1 X131.372 Y73.98 E-.07643
;WIPE_END
G1 E-.04 F2100
G1 Z.6 F720
G1 X137.202 Y75.862 F10800
G1 Z.2 F720
G1 E.8 F2100
M204 S800
G1 F1200
G1 X147.909 Y86.569 E.47617
G1 X147.662 Y86.553 E.00776
G1 X147.393 Y86.588 E.00855
G1 X137.372 Y76.567 E.44568
G1 X137.372 Y77.101 E.01682
G1 X146.92 Y86.649 E.42463
G1 X146.51 Y86.774 E.01348
G1 X137.372 Y77.636 E.4064
G1 X137.372 Y78.171 E.01682
G1 X146.109 Y86.908 E.38856
G1 X145.765 Y87.099 E.01237
G1 X137.372 Y78.706 E.37328
G1 X137.372 Y79.241 E.01682
G1 X145.423 Y87.292 E.35808
G1 X145.13 Y87.534 E.01195
G1 X137.372 Y79.776 E.34505
G1 X137.372 Y80.311 E.01682
G1 X144.842 Y87.78 E.33221
G1 X144.594 Y88.068 E.01193
G1 X137.372 Y80.846 E.3212
G1 X137.372 Y81.38 E.01682
G1 X144.357 Y88.365 E.31065
G1 X144.279 Y88.463 E.00394
G1 X144.157 Y88.701 E.00839
G1 X137.372 Y81.915 E.30178
G1 X137.372 Y82.45 E.01682
G1 X143.976 Y89.055 E.29372
G1 X143.901 Y89.202 E.00522
G1 X143.829 Y89.442 E.00788
G1 X137.372 Y82.985 E.28719
G1 X137.372 Y83.52 E.01682
G1 X143.707 Y89.855 E.28175
G1 X143.679 Y89.948 E.00305
G1 X143.643 Y90.326 E.01194
G1 X137.372 Y84.055 E.2789
G1 X137.372 Y84.59 E.01682
G1 X143.61 Y90.827 E.27742
G1 X143.667 Y91.419 E.0187
G1 X137.372 Y85.124 E.27995
G1 X137.372 Y85.659 E.01682
G1 X144.168 Y92.455 E.30224
M204 S1000
;WIPE_START
G1 F8640
G1 X141.84 Y90.128 E-.76
;WIPE_END
G1 E-.04 F2100
G1 Z.6 F720
G1 X148.96 Y94.573 F10800
G1 Z.2 F720
G1 E.8 F2100
M204 S800
G1 F1200
G1 X149.25 Y94.863 E.0129
G1 X149.238 Y95.386 E.01645
G1 X148.685 Y94.833 E.02457
G1 X148.484 Y94.894 E.00662
G1 X148.228 Y94.911 E.00806
G1 X149.232 Y95.915 E.04467
G1 X149.233 Y96.45 E.01683
G1 X147.726 Y94.944 E.06702
G1 X147.125 Y94.878 E.019
G1 X149.233 Y96.986 E.09375
G1 X149.233 Y97.521 E.01683
G1 X146.118 Y94.405 E.13857
M204 S1000
;WIPE_START
G1 F8640
G1 X148.445 Y96.732 E-.76
;WIPE_END
G1 E-.04 F2100
G1 Z.6 F720
G1 X149.404 Y98.226 F10800
G1 Z.2 F720
G1 E.8 F2100
M204 S800
G1 F1200
G1 X137.372 Y86.194 E.5351
G1 X137.372 Y86.729 E.01682
G1 X149.234 Y98.591 E.52756
G1 X149.234 Y99.126 E.01683
G1 X137.372 Y87.264 E.52758
M73 Q1 S159
G1 X137.372 Y87.799 E.01682
M73 P1 R159
G1 X149.235 Y99.662 E.52759
G1 X149.235 Y100.197 E.01683
G1 X137.372 Y88.334 E.5276
G1 X137.372 Y88.868 E.01682
G1 X149.239 Y100.736 E.52778
G1 X149.253 Y101.089 E.01113
G1 X148.973 Y101.005 E.0092
G1 X137.372 Y89.403 E.51595
G1 X137.372 Y89.938 E.01682
G1 X148.276 Y100.843 E.48497
G1 X147.704 Y100.805 E.01803
G1 X137.372 Y90.473 E.45952
G1 X137.372 Y91.008 E.01682
G1 X147.224 Y100.86 E.43815
G1 X146.862 Y100.907 E.01146
G1 X146.768 Y100.938 E.00314
G1 X137.372 Y91.543 E.41786
G1 X137.372 Y92.078 E.01682
G1 X146.366 Y101.072 E.40002
G1 X146.098 Y101.162 E.0089
G1 X145.985 Y101.225 E.00408
G1 X137.372 Y92.612 E.38305
G1 X137.372 Y93.147 E.01682
G1 X145.643 Y101.418 E.36785
G1 X145.396 Y101.558 E.00891
